icons/plexis/48/qjackrcd.svg

<svg viewBox="0 0 48 48" xmlns="http://www.w3.org/2000/svg" xmlns:xlink="http://www.w3.org/1999/xlink">
  <linearGradient id="a" gradientTransform="matrix(0 -1 1 0 -.0000015 47.999998)" gradientUnits="userSpaceOnUse" x1="1" x2="47">
    <stop offset="0" stop-color="#d62e2e"/>
    <stop offset="1" stop-color="#d93f3f"/>
  </linearGradient>
  <path d="m47 24c0 22.703-.297 23-23 23-22.703 0-23-.297-23-23 0-22.703.297-23 23-23 22.703 0 23 .297 23 23z" fill="url(#a)"/>
  <path d="m25 13a12 12 0 0 0-12 12 12 12 0 0 0  12 12 12 12 0 0 0  12-12 12 12 0 0 0-12-12m0 6a6 6 0 0 1 6 6 6 6 0 0 1-6 6 6 6 0 0 1-6-6 6 6 0 0 1  6-6z" opacity=".1"/>
  <path d="m24 12a12 12 0 0 0-12 12 12 12 0 0 0  12 12 12 12 0 0 0  12-12 12 12 0 0 0-12-12zm0 6a6 6 0 0 1 6 6 6 6 0 0 1-6 6 6 6 0 0 1-6-6 6 6 0 0 1  6-6z" fill="#f9f9f9" fill-opacity=".996"/>
</svg>

<svg xmlns="http://www.w3.org/2000/svg" viewBox="0 0 48 48">
 <defs>
  <linearGradient id="linearGradient3764" x1="1" x2="47" gradientUnits="userSpaceOnUse" gradientTransform="matrix(0,-1,1,0,-1.5e-6,47.999998)">
   <stop style="stop-color:#d62e2e;stop-opacity:1"/>
   <stop offset="1" style="stop-color:#d93f3f;stop-opacity:1"/>
  </linearGradient>
 </defs>
 <g>
  
  
  
 </g>
 <g>
  <path d="m 47,24 C 47,46.703 46.703,47 24,47 1.297,47 1,46.703 1,24 1,1.297 1.297,1 24,1 46.703,1 47,1.297 47,24 z" style="fill:url(#linearGradient3764);fill-opacity:1"/>
 </g>
 <g>
  
 </g>
 <path d="M 25 13 A 12 12 0 0 0 13 25 12 12 0 0 0 25 37 12 12 0 0 0 37 25 12 12 0 0 0 25 13 m 0 6 a 6 6 0 0 1 6 6 6 6 0 0 1 -6 6 6 6 0 0 1 -6 -6 6 6 0 0 1 6 -6 z" style="fill:#000;opacity:0.1;fill-opacity:1;stroke:none"/>
 <path d="M 24 12 A 12 12 0 0 0 12 24 A 12 12 0 0 0 24 36 A 12 12 0 0 0 36 24 A 12 12 0 0 0 24 12 z M 24 18 A 6 6 0 0 1 30 24 A 6 6 0 0 1 24 30 A 6 6 0 0 1 18 24 A 6 6 0 0 1 24 18 z" style="fill:#f9f9f9;opacity:1;fill-opacity:0.996;stroke:none"/>
</svg>
